!! 00009] TT[TB
!! Zh. Ch. 1-2210 (*580086) (J1620)   (24.6.64 angeschafft)  B
!!!OTL: Yuekan yue xihuan
!!!ARE: Neimeng
!! Ethnic Group: Menggu
!! MM, (Variante!) vorhanden
!!!SCT: C0529
!!!YEM: Copyright 1995, estate of Helmut Schaffrath.
**kern
*ICvox
*Ivox
*M2/4
*k[]
*C:
{8e
8g
8e
16g
16a
=1
8cc
16cc
16ee
16a
16cc
16a
16g
=2
4g
8g
16d
16e
=3
8.g
16a
16g
16a
8cc}
=4
{8e
8g
8e
16g
16a
=5
8cc
16cc
16ee
16a
16cc
16a
16g
=6
4g
8g
16d
16e
=7
8.g
16a
4g}
=8
{8g
8g
16a
16cc
16cc
16dd
=9
8.c
16d
8c
8A
=10
8.c
16d
16e
16d
16g
16e
=11
8.d
16e
4d}
=12
{8d
16g
16e
8d
16e
16g
=13
8g
16g
16cc
16a
16cc
16a
16g
=14
8g
16g
16cc
8e
8d
=15
4c}
{8e
16d
16g
=16
8g
8A
4G
=17
8e
16g
16a
8g
16e
16d
=18
8.c
16d
8e
16g
16a
=19
4.cc
8ee
=20
2g}
=21
{8e
16d
16e
4g
=22
8A
8c
8e
8d
=23
2c}
==
!!!AGN: Liebeslied
!! rhythmisch frei. Cut 16 uebersprungen.....
!!!ONB: ESAC (Essen Associative Code) Database: CHINA
!!!AMT: simple duple
!!!AIN: vox
!!!EED: Helmut Schaffrath
!!!EEV: 1.0
*-
